flaticon/interaction/user-26.svg

<svg xmlns="http://www.w3.org/2000/svg" width="32" height="32" viewBox="0 0 24 24">
    <path d="M 23.785156 17.417969 C 23.621094 15.726562 22.355469 14.496094 20.773438 14.496094 C 19.78125 14.496094 18.949219 15.097656 18.421875 15.828125 C 17.890625 15.097656 17.058594 14.496094 16.066406 14.496094 C 14.484375 14.496094 13.21875 15.722656 13.054688 17.417969 C 13.035156 17.527344 12.996094 17.921875 13.148438 18.539062 C 13.375 19.449219 13.894531 20.277344 14.652344 20.929688 L 18.101562 23.882812 C 18.195312 23.960938 18.304688 24 18.417969 24 C 18.53125 24 18.644531 23.960938 18.738281 23.882812 L 22.191406 20.929688 C 22.945312 20.277344 23.464844 19.449219 23.691406 18.539062 C 23.84375 17.921875 23.804688 17.527344 23.785156 17.417969 Z M 22.886719 18.339844 C 22.703125 19.082031 22.277344 19.761719 21.648438 20.300781 L 18.421875 23.0625 L 15.191406 20.300781 C 14.566406 19.761719 14.136719 19.082031 13.953125 18.339844 C 13.828125 17.835938 13.871094 17.554688 13.871094 17.554688 L 13.878906 17.511719 C 13.980469 16.425781 14.765625 15.324219 16.066406 15.324219 C 16.972656 15.324219 17.710938 16.074219 18.042969 16.820312 L 18.421875 17.671875 L 18.800781 16.820312 C 19.128906 16.074219 19.867188 15.324219 20.773438 15.324219 C 22.078125 15.324219 22.859375 16.425781 22.96875 17.546875 C 22.96875 17.550781 23.015625 17.835938 22.886719 18.339844 Z M 22.886719 18.339844"/>
    <path d="M 11.585938 21.953125 C 11.324219 21.953125 11.0625 21.941406 10.800781 21.921875 C 10.757812 21.917969 10.710938 21.914062 10.667969 21.910156 C 10.402344 21.886719 10.140625 21.855469 9.882812 21.8125 C 9.871094 21.8125 9.859375 21.808594 9.847656 21.808594 C 9.300781 21.714844 8.761719 21.582031 8.238281 21.40625 C 8.222656 21.398438 8.203125 21.394531 8.1875 21.386719 C 7.929688 21.300781 7.671875 21.203125 7.417969 21.09375 C 7.414062 21.09375 7.414062 21.089844 7.410156 21.089844 C 7.171875 20.988281 6.9375 20.875 6.707031 20.753906 C 6.675781 20.738281 6.644531 20.722656 6.613281 20.707031 C 6.402344 20.59375 6.195312 20.46875 5.992188 20.34375 C 5.929688 20.304688 5.871094 20.265625 5.8125 20.226562 C 5.625 20.105469 5.4375 19.976562 5.257812 19.839844 C 5.238281 19.828125 5.222656 19.8125 5.203125 19.796875 C 5.214844 19.789062 5.230469 19.78125 5.242188 19.777344 L 8.515625 17.988281 C 9.082031 17.683594 9.429688 17.09375 9.429688 16.449219 L 9.429688 14.957031 L 9.335938 14.84375 C 9.324219 14.832031 8.429688 13.742188 8.09375 12.269531 L 8.054688 12.105469 L 7.914062 12.011719 C 7.714844 11.882812 7.59375 11.667969 7.59375 11.4375 L 7.59375 9.96875 C 7.59375 9.777344 7.675781 9.597656 7.824219 9.460938 L 7.960938 9.339844 L 7.960938 7.03125 L 7.957031 6.976562 C 7.957031 6.96875 7.835938 5.972656 8.535156 5.171875 C 9.136719 4.488281 10.160156 4.140625 11.585938 4.140625 C 13.003906 4.140625 14.027344 4.484375 14.628906 5.164062 C 15.328125 5.953125 15.214844 6.96875 15.214844 6.976562 L 15.210938 9.339844 L 15.347656 9.460938 C 15.496094 9.597656 15.578125 9.777344 15.578125 9.96875 L 15.578125 11.4375 C 15.578125 11.734375 15.375 12 15.089844 12.089844 C 14.871094 12.15625 14.746094 12.390625 14.816406 12.609375 C 14.882812 12.824219 15.113281 12.949219 15.332031 12.882812 C 15.976562 12.683594 16.40625 12.101562 16.40625 11.4375 L 16.40625 9.96875 C 16.40625 9.609375 16.273438 9.261719 16.039062 8.988281 L 16.039062 7.054688 C 16.058594 6.839844 16.136719 5.625 15.257812 4.625 C 14.496094 3.753906 13.261719 3.3125 11.585938 3.3125 C 9.914062 3.3125 8.675781 3.753906 7.914062 4.625 C 7.035156 5.625 7.113281 6.839844 7.132812 7.054688 L 7.132812 8.988281 C 6.898438 9.261719 6.765625 9.609375 6.765625 9.96875 L 6.765625 11.4375 C 6.765625 11.894531 6.96875 12.320312 7.320312 12.605469 C 7.65625 13.921875 8.347656 14.914062 8.601562 15.253906 L 8.601562 16.449219 C 8.601562 16.789062 8.417969 17.097656 8.121094 17.261719 L 4.847656 19.046875 C 4.742188 19.105469 4.636719 19.171875 4.535156 19.246094 C 2.378906 17.308594 1.023438 14.507812 1.023438 11.390625 C 1.023438 5.566406 5.761719 0.828125 11.585938 0.828125 C 17.410156 0.828125 22.148438 5.566406 22.148438 11.390625 C 22.148438 11.621094 22.332031 11.804688 22.5625 11.804688 C 22.792969 11.804688 22.976562 11.621094 22.976562 11.390625 C 22.976562 5.109375 17.867188 0 11.585938 0 C 5.304688 0 0.195312 5.109375 0.195312 11.390625 C 0.195312 14.707031 1.621094 17.699219 3.894531 19.78125 L 3.882812 19.789062 L 4.25 20.101562 C 4.273438 20.121094 4.300781 20.140625 4.324219 20.160156 C 4.523438 20.320312 4.726562 20.476562 4.933594 20.625 C 5 20.675781 5.066406 20.722656 5.136719 20.769531 C 5.355469 20.921875 5.582031 21.066406 5.816406 21.203125 C 5.867188 21.234375 5.917969 21.261719 5.96875 21.292969 C 6.222656 21.4375 6.480469 21.574219 6.746094 21.699219 C 6.765625 21.707031 6.785156 21.714844 6.804688 21.722656 C 7.671875 22.125 8.59375 22.421875 9.558594 22.597656 C 9.585938 22.601562 9.609375 22.605469 9.636719 22.609375 C 9.9375 22.660156 10.238281 22.703125 10.546875 22.730469 C 10.582031 22.734375 10.621094 22.734375 10.65625 22.738281 C 10.964844 22.765625 11.273438 22.78125 11.585938 22.78125 C 11.816406 22.78125 12 22.597656 12 22.367188 C 12 22.136719 11.816406 21.953125 11.585938 21.953125 Z M 11.585938 21.953125"/>
</svg>

<svg xmlns="http://www.w3.org/2000/svg" width="32" height="32" viewBox="0 0 24 24">
    <path d="M23.785 17.418c-.164-1.691-1.43-2.922-3.012-2.922-.992 0-1.824.602-2.351 1.332-.531-.73-1.363-1.332-2.356-1.332-1.582 0-2.847 1.227-3.011 2.922-.02.11-.059.504.093 1.121.227.91.747 1.738 1.504 2.39l3.45 2.954a.489.489 0 0 0 .636 0l3.453-2.953c.754-.653 1.274-1.48 1.5-2.39.153-.618.114-1.013.094-1.122zm-.898.922c-.184.742-.61 1.422-1.239 1.96l-3.226 2.762-3.23-2.761c-.626-.54-1.055-1.219-1.239-1.961-.125-.504-.082-.785-.082-.785l.008-.043c.101-1.086.887-2.188 2.187-2.188.907 0 1.645.75 1.977 1.496l.379.852.379-.852c.328-.746 1.066-1.496 1.972-1.496 1.305 0 2.086 1.102 2.196 2.223 0 .004.047.289-.082.793zm0 0"/>
    <path d="M11.586 21.953c-.262 0-.524-.012-.785-.031l-.133-.012a10.26 10.26 0 0 1-.785-.098c-.012 0-.024-.003-.035-.003a10.774 10.774 0 0 1-1.61-.403c-.015-.008-.035-.011-.05-.02a9.707 9.707 0 0 1-.77-.292c-.004 0-.004-.004-.008-.004a9.647 9.647 0 0 1-.703-.336l-.094-.047c-.21-.113-.418-.238-.62-.363-.063-.04-.122-.078-.18-.117a8.82 8.82 0 0 1-.555-.387c-.02-.012-.035-.027-.055-.043a.182.182 0 0 1 .04-.02l3.273-1.789a1.74 1.74 0 0 0 .914-1.539v-1.492l-.094-.113a6.867 6.867 0 0 1-1.242-2.574l-.04-.165-.14-.093a.687.687 0 0 1-.32-.575V9.97c0-.192.082-.371.23-.508l.137-.121V7.03l-.004-.054c0-.008-.121-1.004.578-1.805.602-.684 1.625-1.031 3.05-1.031 1.419 0 2.442.343 3.044 1.023.7.79.586 1.805.586 1.813L15.21 9.34l.137.12c.148.138.23.317.23.509v1.469a.694.694 0 0 1-.488.652.415.415 0 0 0 .242.793 1.51 1.51 0 0 0 1.074-1.445v-1.47c0-.359-.133-.706-.367-.98V7.055c.02-.215.098-1.43-.781-2.43-.762-.871-1.996-1.313-3.672-1.313-1.672 0-2.91.442-3.672 1.313-.879 1-.8 2.215-.781 2.43v1.933a1.51 1.51 0 0 0-.367.98v1.47c0 .457.203.882.554 1.167.336 1.317 1.028 2.31 1.282 2.649v1.195c0 .34-.184.649-.48.813l-3.274 1.785a3 3 0 0 0-.313.2 10.53 10.53 0 0 1-3.512-7.856C1.023 5.566 5.762.828 11.586.828c5.824 0 10.562 4.738 10.562 10.563 0 .23.184.414.415.414.23 0 .414-.184.414-.414C22.977 5.109 17.867 0 11.586 0S.196 5.11.196 11.39c0 3.317 1.425 6.31 3.699 8.391l-.012.008.367.313c.023.02.05.039.074.058a13.934 13.934 0 0 0 .813.61c.218.152.445.296.68.433.05.031.101.059.152.09.254.145.511.281.777.406l.059.024c.867.402 1.789.699 2.754.875l.078.011c.3.051.601.094.91.121.035.004.074.004.11.008.308.028.616.043.929.043.23 0 .414-.183.414-.414a.412.412 0 0 0-.414-.414zm0 0"/>
</svg>
